icons/lines/global-refresh.svg

<svg xmlns="http://www.w3.org/2000/svg" width="24" height="24" viewBox="0 0 24 24" fill="none" stroke="currentColor" stroke-width="2" stroke-linecap="round" stroke-linejoin="round" >
  <path d="M22 12C22 6.48 17.52 2 12 2C6.48 2 2 6.48 2 12C2 17.52 6.48 22 12 22"/>
  <path d="M8.0001 3H9.0001C7.0501 8.84 7.0501 15.16 9.0001 21H8.0001"/>
  <path d="M15 3C15.97 5.92 16.46 8.96 16.46 12"/>
  <path d="M3 16V15C5.92 15.97 8.96 16.46 12 16.46"/>
  <path d="M3 8.99998C8.84 7.04998 15.16 7.04998 21 8.99998"/>
  <path d="M19.4998 14.7C19.1298 14.59 18.7098 14.52 18.2498 14.52C16.1798 14.52 14.5098 16.2 14.5098 18.26C14.5098 20.33 16.1898 22 18.2498 22C20.3098 22 21.9897 20.32 21.9897 18.26C21.9897 17.49 21.7597 16.77 21.3597 16.18"/>
  <path d="M20.0396 14.8L18.7896 13.37"/>
  <path d="M20.0396 14.8L18.5796 15.86"/>
  </svg>

<svg xmlns="http://www.w3.org/2000/svg" width="24" height="24" viewBox="0 0 24 24" fill="none" stroke="currentColor" stroke-width="2" stroke-linecap="round" stroke-linejoin="round">
  <path d="M15 3a28.6 28.6 0 0 1 1.46 9" />
  <path d="m18.79 13.37 1.25 1.43-1.46 1.06" />
  <path d="M19.5 14.7a4.4 4.4 0 0 0-1.25-.18 3.74 3.74 0 1 0 3.11 1.66" />
  <path d="M22 12a10 10 0 1 0-10 10" />
  <path d="M3 16v-1a28.6 28.6 0 0 0 9 1.46" />
  <path d="M3 9a28.42 28.42 0 0 1 18 0" />
  <path d="M8 3h1a28.42 28.42 0 0 0 0 18H8" />
</svg>
